X:0927
T:I'll never leave thee.
M:3/4
L:1/8
Q:1/4=90 "Slow"
I: :: ||
Z:Jack Campin * www.campin.me.uk * 2009
K:D
  D2 F>G      A2    | {G}F3       E    D2  |E2  (GA/B/) AF    |{F}E4       D2 |
  D2 F>G ({FG}A2)   |    F3       E    D2  |E>F  d>B    A<F   |   E4       D ||
c|d3   c     (Bc/d/)|   (cd/e/) (d>c) (B>A)|B3    A    (B/A/F)|   d3e ({de}f2)|
  B3   A     (Fd)   |({B}A2)    (GF)  (ED) |E>F (dB)   (AF)   |   E4       D |]

